X:5661
T:Gamle Bonde (sonderh\o{}ning)
S:CS
R:Sonderh\o{}ning
O:Denmark
M:2/4
A:Fan\o{}
K:D
f2a2 abag | fgfe d2d2 | efed c2c2 | c2cc A4 |\
f2a2 abag | fgfd d2d2 | efed c2c2 | d4 d4 :|*
d2f2 g3f | f2e2 e4 | d2f2 a2aa | g2fg f2d2 |\
d2f2 abag | fgfe d2d2 | efed c2c2 | d4 d4 :|**
